!!!COM:	Bach, Johann Sebastian
!!!CDT:	1685/02/21/-1750/07/28/
!!!OTL@@DE:	Erhalt uns, Herr, bei deinem Wort
!!!SCT:	BWV 6/6
!!!PC#:	72
!!!AGN:	chorale
**kern	**kern	**kern	**kern
*ICvox	*ICvox	*ICvox	*ICvox
*Ibass	*Itenor	*Ialto	*Isoprn
*I"Bass	*I"Tenor	*I"Alto	*I"Soprano
*clefF4	*clefGv2	*clefG2	*clefG2
*k[b-e-]	*k[b-e-]	*k[b-e-]	*k[b-e-]
*g:	*g:	*g:	*g:
*M4/4	*M4/4	*M4/4	*M4/4
*met(c)	*met(c)	*met(c)	*met(c)
*MM100	*MM100	*MM100	*MM100
4GG	8B-L	4d	8gL
.	8cJ	.	8aJ
=1	=1	=1	=1
4G	4d	8gL	4b-
.	.	8fJ	.
4C	8cL	4e-	8aL
.	8B-J	.	8gJ
8DL	4A	4d	4f#
8cJ	.	.	.
8B-L	8B-L	8dL	8gL
8AJ	8cJ	8f#XJ	8aJ
=2	=2	=2	=2
8GL	8dL	4g	4b-
8CJ	8e-J	.	.
4D	8AL	4f#	4a
.	8dJ	.	.
4GG;	4B-;	4d;	4g;
4G	4d	4g	4b-
=3	=3	=3	=3
4A	4c	8fnXL	4cc
.	.	8gJ	.
4F	4f	4a	4cc
8B-L	4f	4b-	4dd
8AJ	.	.	.
8GL	4g	4d	4b-
8FJ	.	.	.
=4	=4	=4	=4
8E-L	4g	8gL	4cc
8DJ	.	8b-J	.
4E-	16cLL	8aL	4cc
.	16dJ	.	.
.	8e-J	8gJ	.
4D;	4A;	4f#;	4dd;
4G	4B-	4g	4dd
=5	=5	=5	=5
4C	4c	8gL	4ee-
.	.	8aJ	.
4BB-	4F	4b-	8ddL
.	.	.	8ee-J
4AA	4F	4cc	8ffnXL
.	.	.	8ee-J
4BB-	4f	4b-	4dd
=6	=6	=6	=6
4F	8e-L	8a	8ccL
.	8d	4b-	8b-J
4F	8e-	.	4cc
.	8cJ	8a	.
4BB-;	4d;	4f;	4b-;
4F#	4d	4a	4dd
=7	=7	=7	=7
8GL	4d	4g	4b-
8GGJ	.	.	.
4AA	4c	8gL	4cc
.	.	8f#J	.
8BB-L	4d	4g	4b-
8CJ	.	.	.
4D	8dL	4f#	4a
.	8cJ	.	.
=8	=8	=8	=8
8E-L	4B-	8gL	4g
8CJ	.	8e-J	.
4D	8AL	4d	4f#
.	16BL	.	.
.	16cJJ	.	.
2GG;	2B;	2d;	2g;
==	==	==	==
*-	*-	*-	*-
!!!hum2abc: -Q ''
!!!title: @{PC#}. @{OTL@@DE}
!!!YOR1: 371 vierstimmige Choralges&auml;nge von Johann Sebastian Bach, 
!!!YOR2: 4th ed. by Alfred D&ouml;rffel (Leipzig: Breitkopf und H&auml;rtel, 
!!!YOR2: c.1875). 178 pp. Plate "V.A.10".  reprint: J.S. Bach, 371 Four-Part 
!!!YOR4: Chorales (New York: Associated Music Publishers, Inc., c.1940).
!!!SMS: B&H, 4th ed, Alfred D&ouml;rffel, c.1875, plate V.A.10
!!!EED:  Craig Stuart Sapp
!!!EEV:  2009/05/22
